icons/svg/cancel-square.svg

<svg width="24" height="24" viewBox="0 0 24 24" fill="none" xmlns="http://www.w3.org/2000/svg">
<path d="M8.25 3.75C5.76472 3.75 3.75 5.76472 3.75 8.25V15.75C3.75 18.2353 5.76472 20.25 8.25 20.25H15.75C18.2353 20.25 20.25 18.2353 20.25 15.75V8.25C20.25 5.76472 18.2353 3.75 15.75 3.75H8.25Z" stroke="currentColor" stroke-width="1.5"/>
<path d="M8.6554 8.6554L15.3446 15.3446M15.3446 8.6554L8.6554 15.3446" stroke="currentColor" stroke-width="1.5" stroke-linecap="round"/>
</svg>

<svg xmlns="http://www.w3.org/2000/svg" width="24" height="24" fill="none" viewBox="0 0 24 24"><path stroke="currentColor" stroke-width="1.5" d="M8.25 3.75a4.5 4.5 0 0 0-4.5 4.5v7.5a4.5 4.5 0 0 0 4.5 4.5h7.5a4.5 4.5 0 0 0 4.5-4.5v-7.5a4.5 4.5 0 0 0-4.5-4.5z"/><path stroke="currentColor" stroke-linecap="round" stroke-width="1.5" d="m8.655 8.655 6.69 6.69m0-6.69-6.69 6.69"/></svg>
